icons/1_Primary/Keenetic.svg

<svg width="1024" height="1024" fill="none" xmlns="http://www.w3.org/2000/svg"><g clip-path="url(#a)"><path d="M512 1024c282.77 0 512-229.23 512-512S794.77 0 512 0 0 229.23 0 512s229.23 512 512 512Z" fill="#9ABEFF"/><path d="M252.61 490h76.91v-15.9H235.6v75.62h93.92v-16.09h-76.91v-13.68h76.54v-16.08h-76.54V490Zm107 0h76.91v-15.9h-93.69v75.62h93.74v-16.09h-76.91v-13.68h76.54v-16.08h-76.54l-.05-13.87Zm214.28 0h76.91v-15.9h-93.69v75.62h93.74v-16.09h-76.91v-13.68h76.54v-16.08h-76.54l-.05-13.87Zm89.67 0h37.53v59.72H718V490h37.72v-15.9H663.6l-.04 15.9Zm104.83-15.9h17v75.62h-17V474.1Zm-224.82 0h-16.78v53.43l-59.9-53.43h-17v75.62h17v-53.43l59.9 53.43h16.82l-.04-75.62Zm-353.82 30.69 32.54-30.69h-25.88l-30 29.21H145V474.1h-17v75.62h17v-29.4h30c12.57 0 21.26 2.77 25.88 8.13 2.77 3.14 4.07 7.4 4.07 12.76v8.5h17v-8.5c0-9.24-2.77-17.38-8.13-23.66-5.73-6.47-13.68-10.91-24-12.76m690.65 19.41-.55.55c-5.36 5.73-15.71 9.61-30.14 9.61-13.5 0-23.48-3.33-29-8.5l-1.11-1.11a18.745 18.745 0 0 1-4.67-12.93c0-5.36 1.48-9.61 4.62-12.94l1.11-1.11c5.55-5 15.53-8.5 29-8.5 14.42 0 24.77 3.88 30.14 9.61.18.18.37.37.37.55l15.53-7.58a43.374 43.374 0 0 0-3.51-4.62c-8.69-9.24-22.93-14.05-42.52-14.05-19.6 0-33.83 4.81-42.71 14.24a35.854 35.854 0 0 0-9.2 24.58c0 9.61 3.14 18.12 9.24 24.59 8.69 9.43 23.11 14.24 42.71 14.24s33.83-4.81 42.71-14.24A43.385 43.385 0 0 0 896 532l-15.53-7.8Z" fill="#fff"/></g><defs><clipPath id="a"><path fill="#fff" d="M0 0h1024v1024H0z"/></clipPath></defs></svg>

<svg width="1024" height="1024" viewBox="0 0 1024 1024" fill="none" xmlns="http://www.w3.org/2000/svg">
<g clip-path="url(#clip0_2_2586)">
<path d="M512 1024C794.77 1024 1024 794.77 1024 512C1024 229.23 794.77 0 512 0C229.23 0 0 229.23 0 512C0 794.77 229.23 1024 512 1024Z" fill="#9ABEFF"/>
<path d="M252.61 490H329.52V474.1H235.6V549.72H329.52V533.63H252.61V519.95H329.15V503.87H252.61V490ZM359.61 490H436.52V474.1H342.83V549.72H436.57V533.63H359.66V519.95H436.2V503.87H359.66L359.61 490ZM573.89 490H650.8V474.1H557.11V549.72H650.85V533.63H573.94V519.95H650.48V503.87H573.94L573.89 490ZM663.56 490H701.09V549.72H718V490H755.72V474.1H663.6L663.56 490ZM768.39 474.1H785.39V549.72H768.39V474.1ZM543.57 474.1H526.79V527.53L466.89 474.1H449.89V549.72H466.89V496.29L526.79 549.72H543.61L543.57 474.1ZM189.75 504.79L222.29 474.1H196.41L166.41 503.31H145V474.1H128V549.72H145V520.32H175C187.57 520.32 196.26 523.09 200.88 528.45C203.65 531.59 204.95 535.85 204.95 541.21V549.71H221.95V541.21C221.95 531.97 219.18 523.83 213.82 517.55C208.09 511.08 200.14 506.64 189.82 504.79M880.47 524.2L879.92 524.75C874.56 530.48 864.21 534.36 849.78 534.36C836.28 534.36 826.3 531.03 820.78 525.86L819.67 524.75C816.532 521.187 814.863 516.566 815 511.82C815 506.46 816.48 502.21 819.62 498.88L820.73 497.77C826.28 492.77 836.26 489.27 849.73 489.27C864.15 489.27 874.5 493.15 879.87 498.88C880.05 499.06 880.24 499.25 880.24 499.43L895.77 491.85C894.704 490.233 893.532 488.69 892.26 487.23C883.57 477.99 869.33 473.18 849.74 473.18C830.14 473.18 815.91 477.99 807.03 487.42C800.967 494.156 797.68 502.938 797.83 512C797.83 521.61 800.97 530.12 807.07 536.59C815.76 546.02 830.18 550.83 849.78 550.83C869.38 550.83 883.61 546.02 892.49 536.59C893.761 535.14 894.933 533.606 896 532L880.47 524.2Z" fill="white"/>
</g>
<defs>
<clipPath id="clip0_2_2586">
<rect width="1024" height="1024" fill="white"/>
</clipPath>
</defs>
</svg>
